public/train-bullets/7d.svg

<svg xmlns="http://www.w3.org/2000/svg" xml:space="preserve" style="fill-rule:evenodd;clip-rule:evenodd;stroke-linejoin:round;stroke-miterlimit:1.41421" viewBox="0 0 100 100"><path d="M2.407 5H95v90H2.407z" style="fill:#b933ae" transform="rotate(45 30.661 60.1)scale(.76367 .78567)"/><path d="M35.264-3.827q-1.644 1.618-4.57 5.764a51 51 0 0 0-4.903 8.561q-1.567 3.466-2.824 8.472-1.258 5.005-1.258 8.215H14.11q.334-10.012 6.572-20.82 4.03-6.7 6.752-9.344H8.873l.103-6.572h26.288z" style="fill:#fff;fill-rule:nonzero" transform="translate(21.903 39.52)scale(1.26802)"/></svg>

<?xml version="1.0" encoding="UTF-8" standalone="no"?>
<!DOCTYPE svg PUBLIC "-//W3C//DTD SVG 1.1//EN" "http://www.w3.org/Graphics/SVG/1.1/DTD/svg11.dtd">
<svg width="100%" height="100%" viewBox="0 0 100 100" version="1.1" xmlns="http://www.w3.org/2000/svg" xmlns:xlink="http://www.w3.org/1999/xlink" xml:space="preserve" xmlns:serif="http://www.serif.com/" style="fill-rule:evenodd;clip-rule:evenodd;stroke-linejoin:round;stroke-miterlimit:1.41421;">
    <g id="_7-Diamond" serif:id="7 Diamond">
        <g transform="matrix(0.539996,0.539996,-0.555556,0.555556,51.4781,-4.07742)">
            <rect x="2.407" y="5" width="92.593" height="90" style="fill:rgb(185,51,174);"/>
        </g>
        <g transform="matrix(1.26802,0,0,1.26802,21.9029,39.5201)">
            <path d="M35.264,-3.827C34.168,-2.748 32.645,-0.827 30.694,1.937C28.743,4.701 27.109,7.554 25.791,10.498C24.747,12.809 23.805,15.632 22.967,18.97C22.128,22.307 21.709,25.045 21.709,27.185L14.11,27.185C14.333,20.51 16.523,13.57 20.682,6.365C23.369,1.898 25.62,-1.217 27.434,-2.979L8.873,-2.979L8.976,-9.551L35.264,-9.551L35.264,-3.827Z" style="fill:white;fill-rule:nonzero;"/>
        </g>
    </g>
</svg>
